src/icons/svgs/24/layer-group.svg

<svg width="24" height="24" viewBox="0 0 24 24" fill="none" xmlns="http://www.w3.org/2000/svg">
<path d="M3.91969 8.85348L11.3496 11.8769C11.5535 11.9578 11.7785 11.9683 11.9684 11.9683C12.1925 11.9683 12.4152 11.9265 12.6261 11.8419L20.0511 8.82057C20.6379 8.59332 21 8.0941 21 7.46832C21 6.84253 20.6386 6.34331 20.0803 6.11585L12.6504 3.12278C12.2373 2.95797 11.7627 2.95909 11.3429 3.12609L3.91969 6.14749C3.36141 6.3746 3 6.90582 3 7.46832C3 8.03082 3.36141 8.59332 3.91969 8.85348ZM12.0211 4.6885L18.9258 7.46832L11.9789 10.2808L5.07422 7.49996L12.0211 4.6885ZM20.0789 15.1465C19.6472 14.9696 19.155 15.1772 18.9792 15.6091C18.8628 15.8937 18.9133 16.2047 19.0847 16.4332L11.9796 19.3104L4.9132 16.4342C5.08568 16.2046 5.13623 15.8935 5.01976 15.6091C4.84398 15.1774 4.35074 14.9696 3.92007 15.1465C3.36141 15.3433 3 15.9058 3 16.5C3 17.0941 3.36141 17.6236 3.91969 17.851L11.3496 20.877C11.5535 20.9578 11.7785 21 11.9684 21C12.1925 21 12.4152 20.9582 12.6261 20.8736L20.0511 17.8523C20.6379 17.5933 21 17.0941 21 16.5C21 15.9058 20.6379 15.3433 20.0789 15.1465ZM20.0789 10.6465C19.6472 10.4685 19.155 10.6761 18.9792 11.1091C18.8628 11.3937 18.9133 11.7047 19.0847 11.9332L11.9796 14.8104L4.91285 11.9367C5.08533 11.7071 5.13588 11.396 5.01941 11.1116C4.84363 10.6788 4.35039 10.471 3.91972 10.6489C3.36141 10.8433 3 11.4093 3 12.0035C3 12.5976 3.36141 13.1253 3.91969 13.3528L11.3482 16.3773C11.5537 16.4586 11.7771 16.5029 11.9979 16.5029C12.222 16.5029 12.4447 16.4586 12.6557 16.374L20.0807 13.3526C20.6379 13.0933 21 12.566 21 12.0035C21 11.441 20.6379 10.8433 20.0789 10.6465V10.6465Z" fill="black"/>
</svg>

<svg width="24" height="24" viewBox="0 0 24 24" xmlns="http://www.w3.org/2000/svg">
    <path d="m3.92 8.853 7.43 3.024c.204.08.428.091.618.091.225 0 .447-.041.658-.126l7.425-3.021c.587-.228.949-.727.949-1.353 0-.625-.361-1.125-.92-1.352l-7.43-2.993a1.78 1.78 0 0 0-1.307.003L3.92 6.147c-.56.228-.92.759-.92 1.321 0 .563.361 1.125.92 1.385Zm8.1-4.163 6.905 2.78-6.947 2.812L5.074 7.5l6.947-2.811Zm8.058 10.457a.842.842 0 0 0-.994 1.287L11.98 19.31l-7.067-2.876a.843.843 0 0 0-.993-1.288c-.559.197-.92.76-.92 1.354 0 .594.361 1.124.92 1.351l7.43 3.026c.204.08.428.123.618.123.225 0 .447-.042.658-.126l7.425-3.022c.587-.259.949-.758.949-1.352 0-.594-.362-1.157-.921-1.354Zm0-4.5a.84.84 0 0 0-1.1.463.841.841 0 0 0 .106.824L11.98 14.81l-7.067-2.873a.84.84 0 0 0 .106-.825.841.841 0 0 0-1.1-.463c-.558.194-.919.76-.919 1.355 0 .594.361 1.121.92 1.349l7.428 3.024c.206.082.43.126.65.126.224 0 .447-.044.658-.129l7.425-3.021c.557-.26.919-.787.919-1.35 0-.562-.362-1.16-.921-1.357Z"/>
</svg>
